public/images/technologies/web/process/icon_2.svg

<svg width="88" height="89" viewBox="0 0 88 89" fill="none" xmlns="http://www.w3.org/2000/svg">
<rect y="0.607422" width="88" height="88" rx="8" fill="#393E50" fill-opacity="0.1"/>
<g opacity="0.8">
<path d="M31.5 37.1094L41.7273 45.0639L31.5 53.0185" stroke="#393E50" stroke-width="2" stroke-linecap="round" stroke-linejoin="round"/>
<path d="M46.2715 53.0176H56.4988" stroke="#393E50" stroke-width="2" stroke-linecap="round" stroke-linejoin="round"/>
<path d="M66.7865 24.6074H21.2135C19.991 24.6074 19 25.5804 19 26.7807V63.3432C19 64.5435 19.991 65.5165 21.2135 65.5165H66.7865C68.009 65.5165 69 64.5435 69 63.3432V26.7807C69 25.5804 68.009 24.6074 66.7865 24.6074Z" stroke="#393E50" stroke-width="2.12125" stroke-linecap="round" stroke-linejoin="round"/>
</g>
</svg>

<svg xmlns="http://www.w3.org/2000/svg" width="88" height="89" fill="none" xmlns:v="https://vecta.io/nano"><rect y=".607" width="88" height="88" rx="8" fill="#393e50" fill-opacity=".1"/><g opacity=".8" stroke="#393e50"><g stroke-width="2" stroke-linecap="round" stroke-linejoin="round"><path d="M31.5 37.109l10.227 7.954L31.5 53.019m14.772-.001h10.227"/></g><path d="M66.787 24.607H21.214c-1.223 0-2.213.973-2.213 2.173v36.563c0 1.2.991 2.173 2.214 2.173h45.573c1.222 0 2.213-.973 2.213-2.173V26.781c0-1.2-.991-2.173-2.213-2.173z" stroke-width="2.121" stroke-linejoin="round"/></g></svg>
